src/images/svg-to-icon-sprite/half-star-icon.svg

<svg width="18" height="18" viewBox="0 0 18 18" fill="none" xmlns="http://www.w3.org/2000/svg">
<path d="M9 1.21353L10.664 6.33473L10.7482 6.59385H11.0206H16.4054L12.049 9.75892L11.8286 9.91907L11.9128 10.1782L13.5768 15.2994L9.22042 12.1343L9 11.9742L8.77958 12.1343L4.42322 15.2994L6.0872 10.1782L6.1714 9.91907L5.95098 9.75892L1.59462 6.59385H6.97937H7.25183L7.33602 6.33473L9 1.21353Z" stroke="#EA8632" stroke-width="0.75"/>
<path d="M3.70993 16.2812L9 12.4377V0L6.97937 6.21885H0.440491L5.73056 10.0623L3.70993 16.2812Z" fill="#EA8632"/>
</svg>

<svg width="18" height="18" fill="none" xmlns="http://www.w3.org/2000/svg"><path d="m9 1.214 1.664 5.12.084.26h5.657L12.05 9.759l-.22.16.084.26 1.664 5.12-4.357-3.165-.22-.16-.22.16L4.423 15.3l1.664-5.12.084-.26-.22-.16-4.356-3.165h5.657l.084-.26L9 1.215Z" stroke="#EA8632" stroke-width=".75"/><path d="M3.71 16.281 9 12.438V0L6.98 6.219H.44l5.29 3.843-2.02 6.22Z" fill="#EA8632"/></svg>
